!!! OTL: Berkowitz504
!!! Chapter: 1
!!! Section: IV
!!! Page: 126
!!! Mode: 
!!! Encoder: DJB
**kern
*staff1
*I"Piano
=1-
*clefG2
*k[b-e-a-]
*c:
*M3/4
4b-\
20b-/LL
20a-/
20g/
20f/
20g/JJ
8..a-/L
32c/Jkk
=2
4a-/
8f/
8r
20d/LL
20e-/
20d/
20f/
20a-/JJ
=3
4g/
12f/L
12e-/
12f/J
20d/LL
20c#/
20d/
20f/
20e-/JJ
=4
4e-/
8c/
8r
8r
8G/
=5
8..e-/L
32g/Jkk
[4b-\
20b-/LL]
20cc/
20b-/
20a-/
20g/JJ
=6
!!linebreak:original
8..a-/L
32g/Jkk
8f/L
8en/J
8f/
8r
=7
12B-/L
12d/
12f/J
4a-/
24b-/LL
24cc/
24b-/
24a-/
24g/
24f#/JJ
=8
2g/
4r
=9
8..f/L
32en/Jkk
4f/
4d/
=10
8..e-/L
32d/Jkk
4e-/
4r
=11
!!linebreak:original
*M4/4
20d/LL
20c#/
20d/
20e-/
20f/JJ
4e-/
8r
8f/
16e-/LL
16d/
16cn/
16Bn/JJ
=12
*M3/4
4Bn/
4c/
4r
==
*-
